dist/img/call.svg

<svg width="24" height="24" fill="none" xmlns="http://www.w3.org/2000/svg"><g clip-path="url(#a)"><path d="M20.01 15.38c-1.23 0-2.42-.2-3.53-.56a.977.977 0 0 0-1.01.24l-1.57 1.97c-2.83-1.35-5.48-3.9-6.89-6.83l1.95-1.66c.27-.28.35-.67.24-1.02-.37-1.11-.56-2.3-.56-3.53 0-.54-.45-.99-.99-.99H4.19C3.65 3 3 3.24 3 3.99 3 13.28 10.73 21 20.01 21c.71 0 .99-.63.99-1.18v-3.45c0-.54-.45-.99-.99-.99Z" fill="#FF8A00"/></g><defs><clipPath id="a"><path fill="#fff" d="M0 0h24v24H0z"/></clipPath></defs></svg>

<svg width="24" height="24" viewBox="0 0 24 24" fill="none" xmlns="http://www.w3.org/2000/svg">
<g clip-path="url(#clip0_0_16)">
<path d="M20.01 15.38C18.78 15.38 17.59 15.18 16.48 14.82C16.13 14.7 15.74 14.79 15.47 15.06L13.9 17.03C11.07 15.68 8.42 13.13 7.01 10.2L8.96 8.54C9.23 8.26 9.31 7.87 9.2 7.52C8.83 6.41 8.64 5.22 8.64 3.99C8.64 3.45 8.19 3 7.65 3H4.19C3.65 3 3 3.24 3 3.99C3 13.28 10.73 21 20.01 21C20.72 21 21 20.37 21 19.82V16.37C21 15.83 20.55 15.38 20.01 15.38Z" fill="#FF8A00"/>
</g>
<defs>
<clipPath id="clip0_0_16">
<rect width="24" height="24" fill="white"/>
</clipPath>
</defs>
</svg>
